X:1
T:Standin In The Need of Prayer
T:I've Done What You Told Me To Do
T:Copyright 1918 by Homer A. Rodeheaver
T:Rodeheaver's Plantation Melodies
T:Rodeheaver's Plantation Melodies
Z:Rodeheaver's Plantation Melodies
%%score [ 1 2 3 4 ]
L:1/8
Q:1/4=100
M:4/4
K:F
V:1 treble nm="Soprano" snm="S."
V:2 treble nm="Alto" snm="A."
V:3 bass nm="Tenor" snm="T."
V:4 bass nm="Bass" snm="B."
V:1
 A4 A2 F2 | AA/-A/ G-G/-G/ F4 | c4 c2 A2 | cc/-c/ f-f/d/ (c2 d/)c/A/F/ | A4 A2 F2 | %5
w: O lord, I've|done what you told me to do,||||
 AA/-A/ G-G/G/ F2 _F/F/F |: (3G/A/G/D G<G F2 | _F/F/F | (3G/A/G/D G<G F2 F/F/F | Accd A2 G2 |1 %10
w: |||||
 G F3 A2- A/A/A :|2 G F3- F2!D.C.! |] %12
w: ||
V:2
 z8 | z8 | A4 A2 F2 | AA/-A/ B-B/B/ (A3 F) | F4 F2 C2 | FF/-F/ E-E/E/ F2 E/E/E |: DB, D<D C2 | %7
w: ||O Lord, I've|done what you told me to do- ,|O Lord, I've|done what you told me to do. In a- that|morn- ing. O my Lord,|
 E/E/E | DB, D<D C2 C/C/C | FFFF F2 E2 |1 E C3 F2- F/F/_E :|2 E C3- C2 |] %12
w: In a- that|morn- ing, O my Lord, In a- that|morn- ing when the Lord says,|"Hur- ry!" In- * a- that|"Hur- ry!- ".|
V:3
 z8 | z8 | F4 F2 C2 | FF/-F/ C-C/F/ (F2 C2) | C4 C2 A,2 | CC/-C/ B,-B,/A,/ A,2 C/C/C |: %6
 B,F, B,<B, [F,A,]2 | A,/A,/A, | B,F, B,<B, A,2 A,/A,/A, | CA,A,[F,B,] C2 B,2 |1 %10
 B, A,3 C2- C/C/C :|2 B, [F,A,]3- [F,A,]2 |] %12
V:4
 z8 | z8 | F,4 F,2 F,2 | F,F,/-F,/ F,-F,/F,/ F,4 | F,4 F,2 F,2 | %5
 F,F,/-F,/ C,-C,/C,/ D,2 A,,/A,,/A,, |: B,,B,, B,,<B,, F,,2 | F,/F,/F, | %8
 B,,B,, B,,<B,, F,2 F,/F,/F, | %9
"_1. O Lord, O've done what your told me to do.\n2. O Gabriel, come on down the line.\n3. O gambler, you can't get on a-this train.\n4. O sister, have you got your ticket signed?" F,F,F,B,, C,2 C,2 |1 %10
 C, F,3 F,2- F,/F,/F, :|2 B,, F,,3- F,,2 |] %12

